!!!SOCIAL_FUNCTION:	songs of ceremonial dances
!!!PDT:	1958
!!!OTL: No_8_Song_of_the_Bear_Dance_(b).krn
!!!REG: Northern California
!!!LANG: Non-Tone
!!!LING_GROUP: Penutian
**kern
*staff1
*clefF4
*k[b-e-]
*M3/4
8r
8d\
=1
8.B-\L
16G\Jk
8F\L
[8B-\J
8.B-\L]
16c\Jk
=2
16c\LK
8B-\
16B-\Jk
8B-\L
8A\J
8B-\L
8c\J
=3
8B-\L
8A\J
8F\L
[8B-\J
8.B-\L]
16c\Jk
=4
8B-\L
8A\J
8B-\L
8A\J
8B-\L
8c\J
=5
8B-\L
8A\J
8F\L
8B-\J
8r
8c\
=6!|:
8c\L
8c\J
4.c\
8c\
=7
8B-\L
8G\J
8F\L
[8B-\J
8B-\L]
8c\J
=8
16c\LL
16B-\J
8B-\J
8B-\L
8A\J
8B-\L
8c\J
=9
8B-\L
8G\J
8F\L
8B-\J
8r
8c\
=10
8c\L
16B-\L
16B-\JJ
8B-\L
8A\J
8B-\L
8c\J
=11
8B-\L
8A\J
8F\L
8B-\J
16B-\
16r
8c\
=12:|!
8c\L
8c\J
4.c\
8c\
=13
8B-\L
8G\J
8F\L
[8B-\J
8B-\L]
8c\J
=14
8c\L
16B-\L
16B-\JJ
8B-\L
8A\J
8B-\
8r
==
*-
